X: 1
T: Peter Rae's Jig
C: Jim Johnstone
R: jig
Z: John Chambers <jc:trillian.mit.edu>
N: Highland Whisky version
M: 6/8
L: 1/8
K: C
G \
|: "C" CEE EFG | "F"FAA "D7/F#"ABc | "G7"Bcd GAB |1,3 "C"cea "G7"g3 :|2,4 "C"c3 c3 :|
|: "Dm"FDD "G7"DEF | "C"ECC C3 | "D7"^FDD DEF | "G7"GBc def \
| "C"ecc "Am"cde | "Dm"dAA "D7/F#"Adc | "G7"Bcd GAB | "C"c3 c3 :|
